X:80
T:?
M:6/8
L:1/8
R:Double Jig
K:D
BAF AFD|~F3 DFA|BAF AFD|FED ~E3|
BAF AFD|~F3 DFA|dcB AFE|EDC D3:||
||:def d2B|~A3 AFA|def dAd|~e3 edB|
def d2B|~A3 AFA|dcB AFE|EDC D3:||


